X: 349
T: Gongda shijiagang
L: 1/8
M: 2/4
K: G
e2e2 [I:setbarnb 1]| 
fe2e | 
B> d e e | 
d4 | 
B> d e e | 
fe2B | 
d> B A B | 
A4 | 
B dA2 | 
B dA2 | 
d B d e | 
G4 | 
E G A A | 
BA2E | 
G E D E | 
D4 | 
B> A B d | 
A3B | 
d> B d e | 
G4 | 
E> G A A | 
BA2E | 
G> E D E | 
D4 |]

@@@ Tune index: 9223
